X:0502
M:C
L:1/16
Q:1/4=80 "Slow"
K:G
     Te3d  e2f2  g4   g2ab|a2g2 f2e2 d4 B4  |e2d2 egfa  g4 (g2ab)| a2g2     Tf3e e8 |
      e2d2 e2f2  g2g2 gfed|B2g2 BgBg A4 BAGF|G2F2 G2A2  B4  gfed |(B2c2) {B}TA4  G8:|

